**harmony	**harte	**kern	**silbe	**rhyme	**phrase
*M4/4	*M4/4	*ICvox	*	*	*
*	*	*VRlead	*	*	*
*	*	*Hstimme	*	*	*
*g:	*g:	*g:	*	*	*g:
*	*	*M4/4	*	*	*
*	*	*clefF4	*	*	*
1r;	1r	r;	.	.	.
=1	=1	=1	=1	=1	=1
2Gm	G:min (G B- D)	1r	.	.	newline
2CMm	C:7	.	.	.	.
=2	=2	=2	=2	=2	=2
2Gm	G:min	1r	.	.	.
2CMm	C:7	.	.	.	.
=3	=3	=3	=3	=3	=3
2Gm	G:min	1r	.	.	.
2CMm	C:7	.	.	.	.
=4	=4	=4	=4	=4	=4
2Gm	G:min	8r	.	.	.
.	.	8d	You	.	.
.	.	8c	got	.	.
.	.	8d	to	.	.
2CMm	C:7	8c	change	.	.
.	.	8B-	your	.	.
.	.	8G	e-	.	.
.	.	8F	-vil	.	.
=5	=5	=5	=5	=5	=5
*>Letter>A	*>Letter>A	*>Letter>A	*>Letter>A	*>Letter>A	*>Letter>A
*>Label>Verse	*>Label>Verse	*>Label>Verse	*>Label>Verse	*>Label>Verse	*>Label>Verse
2Gm	G:min	4G	ways	A	.
.	.	2r	.	.	.
2CMm	C:7	.	.	.	.
.	.	8r	.	.	.
.	.	[8B-	ba-	A	.
=6	=6	=6	=6	=6	=6
2Gm	G:min	8B-]	_	.	.
.	.	8c	-by	.	.
.	.	4r	.	.	.
2CMm	C:7	2r	.	.	.
=7	=7	=7	=7	=7	=7
2Gm	G:min	8r	.	.	.
.	.	8G	Be-	.	.
.	.	4d	-fore	.	.
2CMm	C:7	4d	I	.	.
.	.	8c	start	.	.
.	.	8r	.	.	.
=8	=8	=8	=8	=8	=8
2Gm	G:min	8c	lo-	(B	.
.	.	4B-	-vin'	b)	.
.	.	4G	you	C	.
2CMm	C:7	.	.	.	.
.	.	8d	You	.	.
.	.	8c	got	.	.
.	.	8B-	to	.	.
=9	=9	=9	=9	=9	=9
2Gm	G:min	8c	change	A	.
.	.	8B-	_	.	.
.	.	2r	.	.	.
2CMm	C:7	.	.	.	.
.	.	8r	.	.	.
.	.	[8B-	ba-	A	.
=10	=10	=10	=10	=10	=10
2Gm	G:min	8B-]	_	.	.
.	.	8c	-by	.	.
.	.	4r	.	.	.
2CMm	C:7	2r	.	.	.
=11	=11	=11	=11	=11	=11
2Gm	G:min	8r	.	.	.
.	.	8G	And	.	.
.	.	8d	ever-	.	.
.	.	8d	-y	.	.
2CMm	C:7	8c	word	.	.
.	.	8d	_	.	.
.	.	8c	that	.	.
.	.	8B-	I	.	.
=12	=12	=12	=12	=12	=12
2Gm	G:min	8c	say	A	.
.	.	4B-	is	.	.
.	.	4G	true	C	.
2CMm	C:7	.	.	.	.
.	.	8F	You	.	.
.	.	8G	got	.	.
.	.	8F	me	.	.
=13	=13	=13	=13	=13	=13
2Gm	G:min	8G	runn-	(B	.
.	.	8B-	-in'	b)	.
.	.	8r	.	.	.
.	.	8F	and	.	.
2CMm	C:7	8G	hid-	.	.
.	.	8B-	-in	b	.
.	.	8r	.	.	.
.	.	[8c	all	.	.
=14	=14	=14	=14	=14	=14
2Gm	G:min	8c]	_	.	.
.	.	8B-	o-	.	.
.	.	8G	-ver	.	.
.	.	4B-	town	D	.
2CMm	C:7	.	.	.	.
.	.	8F	You	.	.
.	.	8G	got	.	.
.	.	8F	me	.	.
=15	=15	=15	=15	=15	=15
2Gm	G:min	8G	sneak-	(E	.
.	.	8B-	-in'	b)	.
.	.	8r	.	.	.
.	.	16F	and	.	.
.	.	16F	a-	.	.
2CMm	C:7	8G	-peep-	(E	.
.	.	8B-	-in'	b)	.
.	.	8r	.	.	.
.	.	8G	and	.	.
=16	=16	=16	=16	=16	=16
2Gm	G:min	8c	runn-	(B	.
.	.	8B-	-in'	b)	.
.	.	8G	you	.	.
.	.	4B-	down	D	.
2CMm	C:7	.	.	.	.
.	.	8G	This	.	.
.	.	8B-	can't	.	.
.	.	8c	go	.	.
=17	=17	=17	=17	=17	=17
1DMm	D:7	1d	on	.	newline
=18	=18	=18	=18	=18	=18
1DMm	D:7	4r	.	.	.
.	.	4d-	Lord	.	.
.	.	8c	knows	.	.
.	.	8B-	you	C	.
.	.	8G	got	.	.
.	.	8F	to	C	.
=19	=19	=19	=19	=19	=19
*>Label>>Interlude	*>Label>>Interlude	*>Label>>Interlude	*>Label>>Interlude	*>Label>>Interlude	*>Label>>Interlude
2Gm	G:min	8G	change	A	newline
.	.	2r	.	.	.
2CMm	C:7	.	.	.	.
.	.	4r	.	.	.
.	.	[8B-	ba-	A	.
=20	=20	=20	=20	=20	=20
2Gm	G:min	8B-]	_	.	.
.	.	8c	-by	.	.
.	.	4r	.	.	.
2CMm	C:7	2r	.	.	.
=21	=21	=21	=21	=21	=21
2Gm	G:min	2r	.	.	.
2CMm	C:7	4r	.	.	.
.	.	8r	.	.	.
.	.	[8B-	ba-	A	.
=22	=22	=22	=22	=22	=22
2Gm	G:min	8B-]	_	.	.
.	.	8c	-by	.	.
.	.	4r	.	.	.
2CMm	C:7	8r	.	.	.
.	.	8d-	When	.	.
.	.	8c	I	.	.
.	.	8B-	come	.	.
=23	=23	=23	=23	=23	=23
*>Letter>A	*>Letter>A	*>Letter>A	*>Letter>A	*>Letter>A	*>Letter>A
*>Label>Verse	*>Label>Verse	*>Label>Verse	*>Label>Verse	*>Label>Verse	*>Label>Verse
2Gm	G:min	8c	home	F	.
.	.	8B-	_	.	.
.	.	2r	.	.	.
2CMm	C:7	.	.	.	.
.	.	8r	.	.	.
.	.	[8B-	ba-	A	.
=24	=24	=24	=24	=24	=24
2Gm	G:min	8B-]	_	.	.
.	.	8c	-by	.	.
.	.	4r	.	.	.
2CMm	C:7	2r	.	.	.
=25	=25	=25	=25	=25	=25
2Gm	G:min	8r	.	.	.
.	.	8G	My	.	.
.	.	8d	house	D	.
.	.	8d	is	.	.
2CMm	C:7	8c	dark	.	.
.	.	8d	_	.	.
.	.	8c	and	.	.
.	.	8B-	my	.	.
=26	=26	=26	=26	=26	=26
2Gm	G:min	8c	pots	.	.
.	.	4B-	are	.	.
.	.	8G	cold	F	.
2CMm	C:7	8r	.	.	.
.	.	8d	You	.	.
.	.	8c	hang	A	.
.	.	8B-	a-	.	.
=27	=27	=27	=27	=27	=27
2Gm	G:min	8c	-round	D	.
.	.	8B-	_	.	.
.	.	2r	.	.	.
2CMm	C:7	.	.	.	.
.	.	8r	.	.	.
.	.	[8B-	ba-	A	.
=28	=28	=28	=28	=28	=28
2Gm	G:min	8B-]	_	.	.
.	.	8c	-by	.	.
.	.	4r	.	.	.
2CMm	C:7	2r	.	.	.
=29	=29	=29	=29	=29	=29
2Gm	G:min	8r	.	.	.
.	.	8G	With	.	.
.	.	8d	Jean	E	.
.	.	8d	and	.	.
2CMm	C:7	8c	Joan	F	.
.	.	8d	_	.	.
.	.	8c	and	.	.
.	.	8B-	a	.	.
=30	=30	=30	=30	=30	=30
2Gm	G:min	8c	who	C	.
.	.	4B-	knows	F	.
.	.	4G	who	C	.
2CMm	C:7	.	.	.	.
.	.	8F	I'm	.	.
.	.	8G	gett-	.	.
.	.	8F	-ing	.	.
=31	=31	=31	=31	=31	=31
2Gm	G:min	8G	ti-	.	.
.	.	8B-	-red	.	.
.	.	8r	.	.	.
.	.	8F	of	.	.
2CMm	C:7	8G	wait-	A	.
.	.	8B-	-ing	.	.
.	.	8r	.	.	.
.	.	8G	and	.	.
=32	=32	=32	=32	=32	=32
2Gm	G:min	8c	fool-	C	.
.	.	8B-	-ing	.	.
.	.	8G	a-	.	.
.	.	4B-	-round	D	.
2CMm	C:7	.	.	.	.
.	.	8F	I'll	.	.
.	.	8G	find	.	.
.	.	8F	some-	.	.
=33	=33	=33	=33	=33	=33
2Gm	G:min	8G	-bod-	.	.
.	.	8B-	-y	.	.
.	.	8r	.	.	.
.	.	8F	that	.	.
2CMm	C:7	8G	won't	.	.
.	.	8B-	make	A	.
.	.	8r	.	.	.
.	.	8G	me	.	.
=34	=34	=34	=34	=34	=34
2Gm	G:min	8c	feel	.	.
.	.	8B-	like	.	.
.	.	8G	a	.	.
.	.	4B-	clown	D	.
2CMm	C:7	.	.	.	.
.	.	8G	This	.	.
.	.	8B-	can't	.	.
.	.	8c	go	.	.
=35	=35	=35	=35	=35	=35
1DMm	D:7	1d	on	.	newline
=36	=36	=36	=36	=36	=36
1DMm	D:7	4r	.	.	.
.	.	4d-	Lord	.	.
.	.	8c	knows	.	.
.	.	8B-	you	C	.
.	.	8G	got	.	.
.	.	8F	to	C	.
=37	=37	=37	=37	=37	=37
*>Letter>A2	*>Letter>A2	*>Letter>A2	*>Letter>A2	*>Letter>A2	*>Letter>A2
*>Label>Solo	*>Label>Solo	*>Label>Solo	*>Label>Solo	*>Label>Solo	*>Label>Solo
2Gm	G:min	8G	change	A	newline
.	.	8r	.	.	.
.	.	4r	.	.	.
2CMm	C:7	2r	.	.	.
=38	=38	=38	=38	=38	=38
2Gm	G:min	1r	.	.	.
2CMm	C:7	.	.	.	.
=39	=39	=39	=39	=39	=39
2Gm	G:min	1r	.	.	.
2CMm	C:7	.	.	.	.
=40	=40	=40	=40	=40	=40
2Gm	G:min	1r	.	.	.
2CMm	C:7	.	.	.	.
=41	=41	=41	=41	=41	=41
2Gm	G:min	1r	.	.	.
2CMm	C:7	.	.	.	.
=42	=42	=42	=42	=42	=42
2Gm	G:min	1r	.	.	.
2CMm	C:7	.	.	.	.
=43	=43	=43	=43	=43	=43
2Gm	G:min	1r	.	.	.
2CMm	C:7	.	.	.	.
=44	=44	=44	=44	=44	=44
2Gm	G:min	1r	.	.	.
2CMm	C:7	.	.	.	.
=45	=45	=45	=45	=45	=45
2Gm	G:min	1r	.	.	.
2CMm	C:7	.	.	.	.
=46	=46	=46	=46	=46	=46
2Gm	G:min	1r	.	.	.
2CMm	C:7	.	.	.	.
=47	=47	=47	=47	=47	=47
2Gm	G:min	1r	.	.	.
2CMm	C:7	.	.	.	.
=48	=48	=48	=48	=48	=48
2Gm	G:min	1r	.	.	.
2CMm	C:7	.	.	.	.
=49	=49	=49	=49	=49	=49
2Gm	G:min	1r	.	.	newline
2CMm	C:7	.	.	.	.
=50	=50	=50	=50	=50	=50
2Gm	G:min	1r	.	.	.
2CMm	C:7	.	.	.	.
=51	=51	=51	=51	=51	=51
2Gm	G:min	1r	.	.	.
2CMm	C:7	.	.	.	.
=52	=52	=52	=52	=52	=52
2Gm	G:min	1r	.	.	.
2CMm	C:7	.	.	.	.
=53	=53	=53	=53	=53	=53
2Gm	G:min	1r	.	.	.
2CMm	C:7	.	.	.	.
=54	=54	=54	=54	=54	=54
2Gm	G:min	1r	.	.	.
2CMm	C:7	.	.	.	.
=55	=55	=55	=55	=55	=55
2Gm	G:min	1r	.	.	newline
2CMm	C:7	.	.	.	.
=56	=56	=56	=56	=56	=56
1CMm	C:7	1r	.	.	.
=57	=57	=57	=57	=57	=57
2Gm	G:min	1r	.	.	.
2CMm	C:7	.	.	.	.
=58	=58	=58	=58	=58	=58
1CMm	C:7	2r	.	.	.
.	.	8r	.	.	.
.	.	8d	When	.	.
.	.	8c	I	.	.
.	.	8B-	come	.	.
=59	=59	=59	=59	=59	=59
*>Letter>A	*>Letter>A	*>Letter>A	*>Letter>A	*>Letter>A	*>Letter>A
*>Label>Verse	*>Label>Verse	*>Label>Verse	*>Label>Verse	*>Label>Verse	*>Label>Verse
2Gm	G:min	8c	home	F	newline
.	.	8B-	_	.	.
.	.	2r	.	.	.
2CMm	C:7	.	.	.	.
.	.	8r	.	.	.
.	.	[8B-	ba-	A	.
=60	=60	=60	=60	=60	=60
2Gm	G:min	8B-]	_	.	.
.	.	8c	-by	.	.
.	.	4r	.	.	.
2CMm	C:7	2r	.	.	.
=61	=61	=61	=61	=61	=61
2Gm	G:min	8r	.	.	.
.	.	8G	My	.	.
.	.	8d	house	D	.
.	.	8d	is	.	.
2CMm	C:7	8c	dark	.	.
.	.	8d	_	.	.
.	.	8c	and	.	.
.	.	8B-	my	.	.
=62	=62	=62	=62	=62	=62
2Gm	G:min	8c	pots	.	.
.	.	4B-	are	.	.
.	.	4G	cold	F	.
2CMm	C:7	.	.	.	.
.	.	8d	You	.	.
.	.	8c	hang	A	.
.	.	8B-	a-	.	.
=63	=63	=63	=63	=63	=63
2Gm	G:min	8c	-round	D	.
.	.	8B-	_	.	.
.	.	2r	.	.	.
2CMm	C:7	.	.	.	.
.	.	8r	.	.	.
.	.	[8B-	ba-	A	.
=64	=64	=64	=64	=64	=64
2Gm	G:min	8B-]	_	.	.
.	.	8c	-by	.	.
.	.	4r	.	.	.
2CMm	C:7	2r	.	.	.
=65	=65	=65	=65	=65	=65
2Gm	G:min	8r	.	.	.
.	.	8G	With	.	.
.	.	8d	Jean	E	.
.	.	8d	and	.	.
2CMm	C:7	8c	Joan	F	.
.	.	8d	_	.	.
.	.	8c	and	.	.
.	.	8B-	a	.	.
=66	=66	=66	=66	=66	=66
2Gm	G:min	8c	who	C	.
.	.	4B-	knows	.	.
.	.	4G	who	C	.
2CMm	C:7	.	.	.	.
.	.	8F	I'm	.	.
.	.	8G	gett-	.	.
.	.	8F	-ing	.	.
=67	=67	=67	=67	=67	=67
2Gm	G:min	8G	ti-	.	.
.	.	8B-	-red	.	.
.	.	8r	.	.	.
.	.	8F	of	.	.
2CMm	C:7	8G	wait-	A	.
.	.	8B-	-ing	.	.
.	.	8r	.	.	.
.	.	8G	and	.	.
=68	=68	=68	=68	=68	=68
2Gm	G:min	8c	fool-	C	.
.	.	8B-	-ing	.	.
.	.	8G	a-	.	.
.	.	4B-	-round	D	.
2CMm	C:7	.	.	.	.
.	.	8F	I'll	.	.
.	.	8G	find	.	.
.	.	8F	some-	.	.
=69	=69	=69	=69	=69	=69
2Gm	G:min	8G	-bod-	.	.
.	.	8B-	-y	.	.
.	.	8r	.	.	.
.	.	8F	that	.	.
2CMm	C:7	8G	won't	.	.
.	.	8B-	make	A	.
.	.	8r	.	.	.
.	.	8G	me	.	.
=70	=70	=70	=70	=70	=70
2Gm	G:min	8c	feel	.	.
.	.	8B-	like	.	.
.	.	8G	a	.	.
.	.	4B-	clown	D	.
2CMm	C:7	.	.	.	.
.	.	8G	This	.	.
.	.	8B-	can't	.	.
.	.	8c	go	.	.
=71	=71	=71	=71	=71	=71
1DMm	D:7	[1d	on	.	newline
=72	=72	=72	=72	=72	=72
1DMm	D:7	4d]	_	.	.
.	.	4d	Yea	.	.
.	.	4f	yea	.	.
.	.	[4g	yea	.	.
=73	=73	=73	=73	=73	=73
*>Letter>A3	*>Letter>A3	*>Letter>A3	*>Letter>A3	*>Letter>A3	*>Letter>A3
*>Label>Solo	*>Label>Solo	*>Label>Solo	*>Label>Solo	*>Label>Solo	*>Label>Solo
2Gm	G:min	1g_	_	.	newline
2CMm	C:7	.	.	.	.
=74	=74	=74	=74	=74	=74
2Gm	G:min	1g]	_	.	.
2CMm	C:7	.	.	.	.
=75	=75	=75	=75	=75	=75
2Gm	G:min	1r	.	.	.
2CMm	C:7	.	.	.	.
=76	=76	=76	=76	=76	=76
2Gm	G:min	1r	.	.	.
2CMm	C:7	.	.	.	.
=77	=77	=77	=77	=77	=77
2Gm	G:min	1r	.	.	.
2CMm	C:7	.	.	.	.
=78	=78	=78	=78	=78	=78
2Gm	G:min	1r	.	.	.
2CMm	C:7	.	.	.	.
=79	=79	=79	=79	=79	=79
2Gm	G:min	1r	.	.	.
2CMm	C:7	.	.	.	.
=80	=80	=80	=80	=80	=80
2Gm	G:min	1r	.	.	.
2CMm	C:7	.	.	.	.
=81	=81	=81	=81	=81	=81
2Gm	G:min	1r	.	.	.
2CMm	C:7	.	.	.	.
=82	=82	=82	=82	=82	=82
2Gm	G:min	1r	.	.	.
2CMm	C:7	.	.	.	.
=83	=83	=83	=83	=83	=83
2Gm	G:min	1r	.	.	.
2CMm	C:7	.	.	.	.
=84	=84	=84	=84	=84	=84
2Gm	G:min	1r	.	.	.
2CMm	C:7	.	.	.	.
=85	=85	=85	=85	=85	=85
2Gm	G:min	1r	.	.	.
2CMm	C:7	.	.	.	.
=86	=86	=86	=86	=86	=86
2Gm	G:min	1r	.	.	.
2CMm	C:7	.	.	.	.
1r;	1r	r;	.	.	.
1r;	1r	r;	.	.	.
*-	*-	*-	*-	*-	*-
!!!BillboardChartDate: 1970/04/04
!!!BillboardPeak: 9
!!!BillboardWeeksOnChart: 13
!!!COC: Santana
!!!EMD: Harmonic and melodic transcriptions were of the longer, album version. I've trimmed them down to the right length (for the single version), but had to remove timestamps. -Nat
!!!ENC: Nathaniel Condit-Schultz
!!!EST: Awating manual error checking and editing.
!!!OTL: Evil Ways
!!!RDF**chordsym: original McGill chord annotation + (implied pitch class set, with bass pitch in first position)
!!!RDF**harmony: **recip + pitch class of root + harmonic quality
!!!RDF**leadinstrument: original McGill primary instrumentation annotation
!!!RDF**phrase: newline = linebreak in original McGill transcription
!!!RDF**timestamp: McGill audio timestamp in seconds
!!!RDT: 2017/01/12/
!!!SampleActualRank: 18
!!!SampleID#: 0364
!!!SampleTargetRank: 18
!!!MBID: 8f86a702-32be-4027-9c0f-1981033fee11
